X:2
T:Presbyterian Hornpipe
C:Trnsc. and arranged
C:C. Kaynor
S:https://www.youtube.com/watch?v=B9azHNIpf6s
S:https://www.youtube.com/watch?v=0HATn7PUegA
M:3/4
L:1/8
K:Gm
Q:1/2=95
V:1 clef=treble staves=3 
%V:2 clef=alto  middle=C
V:2 clef=treble middle=B,
V:3 clef=bass   middle=D,
%%continueall  1
% - - - - - - - - - -
V: 1 clef=treble
[|\
GB BG c/B/A/G/ | ^FA AF A2 | GB A/B/c B/c/d | DG GB TAG ||
Gd dG c/B/A/G/ | ^FA AF A2 | GB A/B/c B/c/d | DG GB TAG |]
[|\
gb  bg  ba/g/  | fa   af ag/f/   | ef   gf  ga  | f2-  fe  dc ||
Bd  fB  df     | Ac   fA cf      | GB   dG  Bd  | ^F2- FE  DC ||
B,D DB, DC/B,/ | A,C CA, CB,/A,/ | G,B, A,C B,D | CE   D^F G2 |]
% - - - - - - - - - -
%V:2
V:2
[|\
DB, G,B, G,/A,/B,/C/ | DD,D,A, DC | B,/A,/ G, CA, D/C/B, | G,B, B,G, ^F,G, ||
D/C/B,/A,/ G,/A,/B,/A,/ G,/A,/B,/C/ | DD, D,A, DC | B,/A,/ G, CA, D/C/B, | G,B, B,G, ^F,G, |]
[|\
G,3 B, DB, | C2 A,2 F,2 | G,3A, G,A, | B,2- B,C DE ||
FD B,D B,F, | FC A,CA,F, | D,G,/A,/ B,D/B,/ G,2 | C/B,/A,/G,/ ^F,A,/G,/ F,A, ||
D/C/B,/A,/ G,/A,/B,/A,/ G,/A,/B, | C/B,/A,/G,/ A,C/B,/ A,/G,/F,/E,/ | D,G, D,A, D,B, | E/D/C A,D, G,2 |]
% - - - - - - - - - -
V:3
[|\
G,,3 G,, C,2 | D,3 D, D,2 | G,,2F,,2 B,,2 | G,,2 E,,2 F,,2 ||
G,,3 G,, C,2 | D,3 D, D,2 | G,,2F,,2 B,,2 | G,,2 E,,2 F,,2 |]
[|\
G,,4 E,,2 | F,,4D,,2 | E,,6 | F,,3 F,, G,,A,, ||
B,,2- B,,B,,- B,,2 | F,,6 | G,,2- G,,G,,- G,,2 | D,,3D,, E,,F,, ||
B,,6 | F,,6 | G,,2 F,,2 B,,2 | C,2D,2 G,,2 |]
